X: 29257
T: New May Moon, The
R: jig
M: 6/8
K: Cmajor
|:E/F/G|c2 c c2 G|A2 G GEG|c2 c d[G^c]d|e2 c E2 G|
f2 f e2 e|dec BB/A/G|AGF EFG|A2 G G:|
|:G/A/B|c2 G cGE|A2 G G2 G|cc/c/c dB/c/d|e2 c cc/d/e|
f>ff ee/e/e|d2 c BAG|FED cFG|A2 B c:|

